packages/core/src/svgs/bdp.svg

<svg width="24" height="24" viewBox="0 0 24 24" fill="none" xmlns="http://www.w3.org/2000/svg">
<g clip-path="url(#clip0_31_6913)">
<path d="M0 0H24V24H0V0Z" fill="url(#paint0_linear_31_6913)"/>
<path d="M3.42863 13.3275V10.6627C3.42863 10.475 3.63349 10.2855 3.8572 10.2855C4.08092 10.2855 4.28577 10.4917 4.28577 10.6627V13.3275C4.28577 13.4955 4.14477 13.7133 3.8572 13.7133C3.55806 13.7133 3.42863 13.538 3.42863 13.3275ZM11.5715 13.3173V10.6481C11.5715 10.4604 11.7759 10.286 12.0001 10.286C12.2238 10.286 12.4286 10.4771 12.4286 10.6481V13.3173C12.4286 13.4853 12.2876 13.7128 12.0001 13.7128C11.7116 13.7128 11.5715 13.5277 11.5715 13.3173ZM19.7143 13.3284V10.637C19.7143 10.4493 19.9188 10.286 20.1429 10.286C20.3666 10.286 20.5715 10.466 20.5715 10.6374V13.3284C20.5715 13.4964 20.4305 13.7128 20.1429 13.7128C19.8553 13.7128 19.7143 13.5388 19.7143 13.3284ZM4.20349 8.14525C3.56063 8.18125 3.4192 8.59697 3.42906 8.80011C3.42906 9.41897 4.01192 9.45497 4.30377 9.3954C5.53163 9.43097 6.66092 10.7694 7.07149 11.4341C7.19792 11.1598 7.55449 10.6751 7.71692 10.4668C6.41192 8.59182 5.00663 8.10111 4.20349 8.14525ZM19.7966 15.8544C20.4395 15.818 20.5809 15.3984 20.5711 15.1931C20.5711 14.5683 19.9882 14.5323 19.6963 14.5923C18.4685 14.5563 17.3392 13.205 16.9286 12.5338C16.8022 12.8103 16.4456 13.3001 16.2832 13.5105C17.5882 15.4035 18.9935 15.8994 19.7966 15.8544Z" fill="white"/>
<path d="M3.96514 14.6201C3.62957 14.6972 3.43628 14.9826 3.43628 15.2158C3.43628 15.8492 4.08042 15.8809 4.32985 15.8492C6.01799 15.8492 7.49014 13.8525 8.61471 12.1202C9.56528 10.6554 10.2956 9.37778 12.0279 9.37778C13.6543 9.37778 14.6241 10.7094 15.0557 11.4902L15.7307 10.4145C15.2079 9.64049 13.7353 8.14307 12.0279 8.14307C10.3204 8.14307 9.22371 9.21278 8.68928 10.0202C7.19571 12.2796 6.28628 13.7188 5.44285 14.2554C4.65857 14.7546 4.38428 14.5241 3.96514 14.6201Z" fill="white"/>
<path d="M20.0426 9.38038C20.3782 9.30324 20.5715 9.01781 20.5715 8.78467C20.5715 8.15124 19.9269 8.11953 19.6775 8.15124C17.9898 8.15124 16.5172 10.148 15.3926 11.8802C14.442 13.3451 13.7122 14.6227 11.9799 14.6227C10.3535 14.6227 9.38361 13.2911 8.95161 12.5102L8.27661 13.586C8.79947 14.36 10.2725 15.8574 11.9795 15.8574C13.6873 15.8574 14.784 14.7877 15.318 13.9802C16.812 11.7208 17.7215 10.2817 18.5649 9.7451C19.3492 9.24581 19.623 9.47638 20.0426 9.38038Z" fill="white"/>
</g>
<defs>
<linearGradient id="paint0_linear_31_6913" x1="3.85071" y1="3.63429" x2="18.7573" y2="21.5224" gradientUnits="userSpaceOnUse">
<stop stop-color="#746EF3"/>
<stop offset="1" stop-color="#C346D5"/>
</linearGradient>
<clipPath id="clip0_31_6913">
<rect width="24" height="24" fill="white"/>
</clipPath>
</defs>
</svg>

<svg xmlns="http://www.w3.org/2000/svg" width="24" height="24" fill="none" viewBox="0 0 24 24"><g clip-path="url(#a)"><path fill="url(#b)" d="M0 0h24v24H0z"/><path fill="#fff" d="M3.429 13.328v-2.665c0-.188.204-.377.428-.377s.429.206.429.377v2.665c0 .168-.141.385-.429.385-.299 0-.428-.175-.428-.385m8.143-.01v-2.67c0-.188.204-.362.428-.362s.429.191.429.362v2.67a.41.41 0 0 1-.429.395c-.288 0-.428-.185-.428-.396m8.142.01v-2.691c0-.188.205-.351.429-.351s.428.18.428.351v2.691c0 .168-.14.385-.428.385s-.429-.174-.429-.385M4.204 8.145c-.643.036-.785.452-.775.655 0 .619.583.655.875.595 1.228.036 2.357 1.374 2.767 2.04.127-.275.483-.76.646-.968C6.412 8.592 5.007 8.1 4.203 8.145m15.593 7.71c.642-.037.784-.457.774-.662 0-.625-.583-.66-.875-.6-1.228-.037-2.357-1.388-2.767-2.06-.127.277-.483.767-.646.978 1.305 1.893 2.71 2.388 3.514 2.343"/><path fill="#fff" d="M3.965 14.62c-.335.077-.529.363-.529.596 0 .633.644.665.894.633 1.688 0 3.16-1.997 4.285-3.729.95-1.465 1.68-2.742 3.413-2.742 1.626 0 2.596 1.331 3.028 2.112l.675-1.075c-.523-.775-1.996-2.272-3.703-2.272-1.708 0-2.804 1.07-3.339 1.877-1.493 2.26-2.403 3.699-3.246 4.235-.784.5-1.059.27-1.478.365"/><path fill="#fff" d="M20.043 9.38c.335-.077.529-.362.529-.595 0-.634-.645-.665-.895-.634-1.687 0-3.16 1.997-4.284 3.73-.951 1.464-1.68 2.742-3.413 2.742-1.626 0-2.596-1.332-3.028-2.113l-.675 1.076c.522.774 1.996 2.271 3.703 2.271s2.804-1.07 3.338-1.877c1.494-2.26 2.403-3.698 3.247-4.235.784-.5 1.058-.269 1.478-.365"/></g><defs><linearGradient id="b" x1="3.851" x2="18.757" y1="3.634" y2="21.522" gradientUnits="userSpaceOnUse"><stop stop-color="#746EF3"/><stop offset="1" stop-color="#C346D5"/></linearGradient><clipPath id="a"><path fill="#fff" d="M0 0h24v24H0z"/></clipPath></defs></svg>
